X:1
T:Mélodies pour Piano et Chant (Chansons populaires)
T:Noël
T:1. Noël
T:Augusta Holmès
T:Mélodies pour Piano et Chant 
T:(Pour Soprano ou Ténor)
T:OpenScore (CC0)
T:OpenScore (CC0)
T:OpenScore (CC0)
C:Augusta Holmès
Z:Anonymous
Z:OpenScore (CC0)
%%score 1 { ( 2 4 ) | 3 }
L:1/8
Q:1/4=114
M:4/4
K:F
V:1 treble nm="Chant\nVoice"
V:2 treble nm="Piano"
V:4 treble 
V:3 treble 
V:1
"^Moderato" z4 z2!p! F2 | c2 A2 B2 d2 | c2 A2 F2 F G | A2 c2 A2 G F | G4 A2 F2 | c2 A2 B2 d2 | %6
w: Trois|an- ges sont ve-|nus ce soir M'ap- por-|ter de bien bel- les|cho- ses; L'un|d'eux a- vait un|
 c2 A2 F2 G A | G2 c d e2 g2 | (d4 c2)!f! c2 | d2 f2 e2 (dc) | d2 f2 e2 d c | f2 c2 A2 G F | %12
w: en- cen- soir, L'autre a-|vait un cha- peau de|ro- ses, Et|le troi- sième a- *|\- vait en main U- ne|ro- be tou- te fleu-|
 c4 c2!f! c2 | d2 f2 e2 (dc) | d2 f2 e2 d c | f2 c2 A2 G F | c4 c2!f! c2 | d2 f2 c2 A c | %18
w: ri- e De|per- les, d'or et *|de jas- min, Comme  en|a Ma- da- me Ma-|ri- e! «No-|ël! No- ël! Nous ve-|
 d2 f2 c2 F G | A2 c2 A2 G F | G4 A2 c2 | d2 f2 c2!<(! A c | d2 f2!<)! !fermata!g2!p! d f | %23
w: nons du ciel T'ap- por-|ter ce que tu dé-|\- si- res, Car|le bon Dieu Au fond|du ciel bleu Est cha-|
 c2 F G A2 c2 | (G4 F2) z2 | z8 | z8 | z8 | z8 || z4 z2 F2 | c2 A2 B2 d2 | c2 A2 F2 F G | %32
w: grin lors- que tu sou-|pi- res.»|||||«Veux-|tu le bel en-|cen- soir d'or, Ou la|
 A2 c2 A2 G F | G4 A2 F2 | c2 A2 B2 d2 | c2 A2 F2 G A | G2 c d e2 g2 | d4 c2!mf! c2 | %38
w: rose é- close en cou-|ron- ne? Veux-|tu la robe, ou|bien en- cor Un  col-|lier où l'ar- gent fleu-|\- ron- ne? Veux-|
 d2 f2 e2 (dc) | d2 f2 e2 d c | f2 c c A2 (GF) | c4 c2 c2 | d2 f2 e2 (dc) | d2 f2 e2 d c | %44
w: tu des fruits du *|Pa- ra- dis Ou du|blé des cé- les- tes *|gran- ges? Ou|com- me les ber- *|gers, ja- dis, Veux\-- tu|
 f2 c2 A2 G F | c4 c2 c2 | d2 f2 c2 A c | d2 f2 c2 F G | A2 c2 A2 G F | G4 A z c2 | %50
w: voir Jé- sus dans  ses|lan- ges?»  No-|ël! No- ël! Re- tour-|\- nez au ciel, Mes  beaux|an- ges, à l'ins- tant|mê- me; Dans|
 d2 f2!<(! c2 A c | d2 f2!<)! !fermata!g2!p! d f | c2 F G A2 c2 | G4 F2 z2 | z8 | z8 | z8 | z8 |] %58
w: le ciel bleu De- man-|dez à Dieu Le bon-|\- heur pour  ce- lui que|j'ai- me!|||||
V:2
 z8 |!p!!8va(! ([fac']4 [fbd']4 | [fac']4 [fad']4) | [faf']8 | c'4- c'2 z2 |!p! ([fac']4 [fbd']4 | %6
 [fac']4 [fad']4) | [gc']8 | ([fg=b]4 [egc']4) |!f!!>(! ([fbf']4!>)! [ebe']4) | %10
!>(! ([fbf']4!>)! [ebe']4) | [faf']8 | [ebc']4 [fac']4 |!>(! ([fbf']4!>)! [ebe']4) | %14
!>(! ([fbf']4!>)! [ebe']4) | [faf']8 | [ebe']4- [ebe']2 z2 | [fbf']4 [faf']4 | [fbf']4 [faf']4 | %19
!p! [faf']8 | ([ebe']4 [faf']4) |!<(! [fbf']4 [faf']4 | [fbf']4!<)! !fermata![fbf']2- [fbf'] z | %23
!p! [faf']8 | ((([ebe']4 [faf'])))!8va)! z!p! (c2 | (b4 a4)) | ((b4 a4)) |"_dim." f8 | %28
 [Bc]4 [Ac]2 !fermata!z2 || z8 |!p!!8va(! ([fac']4 [fbd']4 | [fac']4 [fad']4) | [faf']8 | %33
 c'4- c'2 z2 |!p! ([fac']4 [fbd']4 | [fac']4 [fad']4) | [gc']8 | ([fg=b]4 [egc']4) | %38
!f!!>(! ([fbf']4 [ebe']4)!>)! |!f!!>(! ([fbf']4!>)! [ebe']4) |!mf! [faf']8 | [ebc']4 [fac']4 | %42
!f!!>(! ([fbf']4!>)! [ebe']4) |!f!!>(! ([fbf']4!>)! [ebe']4) |!mf! [faf']8 | [ebe']4- [ebe']2 z2 | %46
!p! [fbf']4 [faf']4 | [fbf']4 [faf']4 |!p! [faf']8 | ([ebe']4 [faf']4) |!<(! [fbf']4 [faf']4 | %51
 [fbf']4!<)! !fermata![fbf']2- [fbf'] z |!p! [faf']8 | ((([ebe']4 [faf'])))!8va)! z (c2 | %54
 d2 f2 c2) (Ac | d2 f2 c2) (FG |"_dim." A2 c2 A2 GF) | G4 [FA]2 !fermata!z2 |] %58
V:3
 z8 | ([FAc]4 [FBd]4 | [FAc]4 [DAd]4) | [CAc]8 | ([CGc]4 [FAc]4) | ([FAc]4 [FBd]4 | %6
 [FAc]4 [DAd]4) | [Ge]8 | (([Gd]4 [CGc]4)) | ((!arpeggio![CGBd]4 [CGBc]4)) | %10
 (!arpeggio![C-GBd]4 [CGBc]4) | [CAc]8 | ([CGc]4 [FAc]4) | (!arpeggio![C-GBd]4 [CGBc]4) | %14
 (!arpeggio![C-GBd]4 [CGBc]4) | [CAc]8 | [CGc]4- [CGc]2 z2 |!f! [FBd]4 [FAc]4 | [FBd]4 [FAc]4 | %19
 [CAc]8 | ([CGc]4 [FAc]4) | [FBd]4 [FAc]4 | [FBd]4 !fermata![GBd]2- [GBd] z | [CAc]8 | %24
 [CGc]4!ped! [F,F]4 | [FB]4!ped-up!!ped! A4!ped-up! |!ped! [FB]4!ped-up!!ped! A4!ped-up! | %27
!ped! [CF]8!ped-up! | (([CE]4 [F,F]2)) !fermata!z2 || z8 | ([FAc]4 [FBd]4 | [FAc]4 [DAd]4) | %32
 [CAc]8 | ([CGc]4 [FAc]4) | ([FAc]4 [FBd]4 | [FAc]4 [DAd]4) | [Ge]8 | (([Gd]4 [CGc]4)) | %38
 (!arpeggio![C-GBd]4 [CGBc]4) | (!arpeggio![C-GBd]4 [CGBc]4) | [CAc]8 | ([CGc]4 [FAc]4) | %42
 (!arpeggio![C-GBd]4 [CGBc]4) | (!arpeggio![C-GBd]4 [CGBc]4) | [CAc]8 | [CGc]4- [CGc]2 z2 | %46
 [FBd]4 [FAc]4 | [FBd]4 [FAc]4 | [CAc]8 | ([CGc]4 [FAc]4) | [FBd]4 [FAc]4 | %51
 [FBd]4 !fermata![GBd]2- [GBd] z | [CAc]8 | [CGc]4 [F,F]4 | ([FB]4 [FA]4) | ([FB]4 [FA]4) | [CF]8 | %57
 (([CE]4 [F,F]2)) !fermata!z2 |] %58
V:4
 x8 |!8va(! x8 | x8 | x8 | (([eb]4 [fa]2)) x2 | x8 | x8 | x8 | x8 | x8 | x8 | x8 | x8 | x8 | x8 | %15
 x8 | x8 | x8 | x8 | x8 | x8 | x8 | x8 | x8 | x5!8va)! x3 | d2 f2 c2 (Ac | d2 f2 c2) (FG | %27
 A2 c2 A2 GF) | G4 F2 x2 || x8 |!8va(! x8 | x8 | x8 | (([eb]4 [fa]2)) x2 | x8 | x8 | x8 | x8 | x8 | %39
 x8 | x8 | x8 | x8 | x8 | x8 | x8 | x8 | x8 | x8 | x8 | x8 | x8 | x8 | x5!8va)! x3 | b4 a4 | %55
 b4 a4 | (f8 | [Bc-]4 c2) x2 |] %58

